web/icons/github.svg

<svg width="100" height="100" viewBox="0 0 100 100" fill="none" xmlns="http://www.w3.org/2000/svg">
<rect width="100" height="100" rx="50" fill="white"/>
<path fill-rule="evenodd" clip-rule="evenodd" d="M50.5 7C25.9137 7 6 26.7292 6 51.0876C6 70.5964 18.7381 87.0742 36.4269 92.9158C38.6519 93.3015 39.4862 91.9789 39.4862 90.8216C39.4862 89.7745 39.4306 86.3026 39.4306 82.6103C28.25 84.6493 25.3575 79.9099 24.4675 77.43C23.9669 76.1625 21.7975 72.2497 19.9062 71.2026C18.3487 70.376 16.1237 68.3369 19.8506 68.2818C23.355 68.2267 25.8581 71.4782 26.6925 72.8008C30.6975 79.469 37.0944 77.5953 39.6531 76.438C40.0425 73.5723 41.2106 71.6435 42.49 70.5413C32.5887 69.4391 22.2425 65.6366 22.2425 48.773C22.2425 43.9785 23.9669 40.0106 26.8038 36.9245C26.3588 35.8223 24.8012 31.3033 27.2487 25.2413C27.2487 25.2413 30.9756 24.084 39.4862 29.7602C43.0462 28.7683 46.8288 28.2723 50.6113 28.2723C54.3938 28.2723 58.1763 28.7683 61.7363 29.7602C70.2469 24.0288 73.9738 25.2413 73.9738 25.2413C76.4213 31.3033 74.8638 35.8223 74.4188 36.9245C77.2556 40.0106 78.98 43.9234 78.98 48.773C78.98 65.6917 68.5781 69.4391 58.6769 70.5413C60.29 71.919 61.6806 74.5643 61.6806 78.6975C61.6806 84.5942 61.625 89.3337 61.625 90.8216C61.625 91.9789 62.4594 93.3567 64.6844 92.9158C82.2619 87.0742 95 70.5413 95 51.0876C95 26.7292 75.0863 7 50.5 7Z" fill="#1B1F23"/>
</svg>

<svg width="100" height="100" fill="none" xmlns="http://www.w3.org/2000/svg"><rect width="100" height="100" rx="50" fill="#fff"/><path fill-rule="evenodd" clip-rule="evenodd" d="M50.5 7C25.914 7 6 26.73 6 51.088c0 19.508 12.738 35.986 30.427 41.828 2.225.386 3.06-.937 3.06-2.094 0-1.047-.056-4.52-.056-8.212-11.181 2.04-14.073-2.7-14.963-5.18-.501-1.268-2.67-5.18-4.562-6.227-1.557-.827-3.782-2.866-.055-2.921 3.504-.055 6.007 3.196 6.841 4.519 4.006 6.668 10.402 4.794 12.961 3.637.39-2.866 1.558-4.794 2.837-5.897-9.901-1.102-20.248-4.904-20.248-21.768 0-4.795 1.725-8.762 4.562-11.849-.445-1.102-2.003-5.62.445-11.683 0 0 3.727-1.157 12.237 4.52 3.56-.993 7.343-1.489 11.125-1.489 3.783 0 7.565.496 11.125 1.488 8.51-5.731 12.238-4.519 12.238-4.519 2.447 6.062.89 10.581.445 11.684 2.837 3.086 4.561 6.998 4.561 11.848 0 16.919-10.402 20.666-20.303 21.768 1.613 1.378 3.004 4.023 3.004 8.157 0 5.896-.056 10.636-.056 12.124 0 1.157.834 2.535 3.06 2.094C82.261 87.074 95 70.54 95 51.088 95 26.729 75.086 7 50.5 7Z" fill="#1B1F23"/></svg>
